; generated by Slic3r Prusa Edition 1.41.2+ on 2019-02-04 at 15:38:36

; 

; external perimeters extrusion width = 0.45mm
; perimeters extrusion width = 0.45mm
; infill extrusion width = 0.45mm
; solid infill extrusion width = 0.45mm
; top infill extrusion width = 0.40mm
; first layer extrusion width = 0.42mm

M73 P0 R161
M73 Q0 S170
M201 X1000 Y1000 Z1000 E5000 ; sets maximum accelerations, mm/sec^2
M203 X200 Y200 Z12 E120 ; sets maximum feedrates, mm/sec
M204 P1250 R1250 T1250 ; sets acceleration (P, T) and retract acceleration (R), mm/sec^2
M205 X8.00 Y8.00 Z0.40 E1.50 ; sets the jerk limits, mm/sec
M205 S0 T0 ; sets the minimum extruding and travel feed rate, mm/sec
M107
M115 U3.5.1 ; tell printer latest fw version
M83  ; extruder relative mode
M104 S215 ; set extruder temp
M140 S60 ; set bed temp
M190 S60 ; wait for bed temp
M109 S215 ; wait for extruder temp
G28 W ; home all without mesh bed level
G80 ; mesh bed leveling
G1 Y-3.0 F1000.0 ; go outside print area
G92 E0.0
G1 X60.0 E9.0  F1000.0 ; intro line
M73 Q0 S170
M73 P0 R161
G1 X100.0 E12.5  F1000.0 ; intro line
G92 E0.0
M221 S95
M900 K30; Filament gcode
G21 ; set units to millimeters
G90 ; use absolute coordinates
M83 ; use relative distances for extrusion
;BEFORE_LAYER_CHANGE
G92 E0.0
;0.2


G1 E-0.80000 F2100.00000
G1 Z0.600 F10800.000
;AFTER_LAYER_CHANGE
;0.2
G1 X75.274 Y67.821
G1 Z0.200
G1 E0.80000 F2100.00000
M204 S1000
G1 F1200
G1 X76.073 Y67.023 E0.03541
G1 X76.771 Y66.554 E0.02636
G1 X77.536 Y66.207 E0.02636
G1 X78.349 Y65.990 E0.02636
G1 X79.191 Y65.910 E0.02653
G1 X170.756 Y65.909 E2.87094
G1 X171.703 Y65.999 E0.02984
G1 X172.617 Y66.264 E0.02984
G1 X173.466 Y66.695 E0.02984
G1 X174.220 Y67.275 E0.02984
G1 X202.285 Y95.293 E1.24339
G1 X203.282 Y96.514 E0.04943
G1 X204.470 Y98.372 E0.06915
G1 X205.010 Y99.497 E0.03913
G1 X205.849 Y102.220 E0.08934
G1 X206.089 Y103.904 E0.05332
G1 X206.044 Y106.774 E0.08998
G1 X205.847 Y107.967 E0.03794
G1 X205.218 Y110.125 E0.07045
G1 X204.492 Y111.770 E0.05638
G1 X202.940 Y114.134 E0.08868
G1 X202.145 Y115.032 E0.03760
G1 X173.927 Y142.978 E1.24521
G1 X173.229 Y143.446 E0.02636
G1 X172.463 Y143.794 E0.02636
G1 X171.651 Y144.010 E0.02636
G1 X170.809 Y144.090 E0.02653
G1 X79.211 Y144.090 E2.87198
G1 X78.090 Y143.957 E0.03541
G1 X77.026 Y143.579 E0.03541
G1 X76.071 Y142.976 E0.03541
G1 X75.273 Y142.177 E0.03541
G1 X74.807 Y141.484 E0.02619
G1 X74.460 Y140.724 E0.02619
G1 X74.243 Y139.918 E0.02619
G1 X74.160 Y139.081 E0.02636
G1 X74.160 Y70.944 E2.13638
G1 X74.296 Y69.829 E0.03523
G1 X74.674 Y68.771 E0.03523
G1 X75.242 Y67.872 E0.03335
G1 F8640
G1 X76.073 Y67.023 E-0.27427
G1 X76.771 Y66.554 E-0.19413
G1 X77.536 Y66.207 E-0.19413
G1 X77.944 Y66.098 E-0.09748
G1 E-0.04000 F2100.00000
G1 Z0.800 F10800.000
G1 X179.764 Y98.733
G1 Z0.200
G1 E0.80000 F2100.00000
G1 F1200
G1 X181.007 Y96.801 E0.07203
G1 X182.089 Y95.560 E0.05162
G1 X183.319 Y94.459 E0.05175
G1 X183.806 Y94.084 E0.01928
G1 X185.110 Y93.246 E0.04861
G1 X187.197 Y92.293 E0.07192
G1 X188.781 Y91.834 E0.05173
G1 X190.408 Y91.574 E0.05167
G1 X191.028 Y91.520 E0.01949
G1 X192.621 Y91.525 E0.04995
G1 X194.533 Y91.781 E0.06049
G1 X196.341 Y92.286 E0.05886
G1 X198.171 Y93.096 E0.06274
G1 X199.935 Y94.217 E0.06554
G1 X201.527 Y95.619 E0.06651
G1 X202.686 Y96.981 E0.05607
G1 X203.663 Y98.495 E0.05648
G1 X204.518 Y100.353 E0.06414
G1 X205.100 Y102.392 E0.06649
G1 X205.338 Y104.162 E0.05598
G1 X205.344 Y105.931 E0.05546
G1 X205.102 Y107.776 E0.05837
G1 X204.643 Y109.459 E0.05468
G1 X204.435 Y110.039 E0.01931
G1 X203.793 Y111.447 E0.04854
G1 X202.550 Y113.380 E0.07203
G1 X201.468 Y114.621 E0.05165
G1 X200.238 Y115.721 E0.05174
G1 X199.751 Y116.096 E0.01926
G1 X198.447 Y116.934 E0.04862
G1 X196.360 Y117.887 E0.07192
G1 X194.873 Y118.323 E0.04859
G1 X194.276 Y118.444 E0.01909
G1 X192.637 Y118.655 E0.05182
G1 X190.992 Y118.660 E0.05158
G1 X188.908 Y118.374 E0.06595
G1 X186.913 Y117.781 E0.06527
G1 X185.282 Y117.028 E0.05633
G1 X183.778 Y116.079 E0.05573
G1 X182.032 Y114.563 E0.07253
G1 X180.872 Y113.199 E0.05614
G1 X179.909 Y111.711 E0.05557
G1 X179.034 Y109.812 E0.06557
G1 X178.457 Y107.786 E0.06605
G1 X178.219 Y106.014 E0.05605
G1 X178.214 Y104.247 E0.05540
G1 X178.456 Y102.404 E0.05829
G1 X178.914 Y100.721 E0.05468
G1 X179.122 Y100.141 E0.01931
G1 X179.739 Y98.788 E0.04666
G1 X180.082 Y98.944 F10800.000
G1 F1200
G1 X181.300 Y97.038 E0.07091
G1 X182.365 Y95.816 E0.05082
G1 X183.565 Y94.745 E0.05044
G1 X184.016 Y94.397 E0.01788
G1 X185.303 Y93.571 E0.04793
G1 X187.315 Y92.651 E0.06937
G1 X188.852 Y92.204 E0.05019
G1 X190.461 Y91.947 E0.05108
G1 X191.035 Y91.897 E0.01806
G1 X192.607 Y91.902 E0.04930
G1 X194.469 Y92.153 E0.05892
G1 X196.226 Y92.646 E0.05720
G1 X198.005 Y93.435 E0.06102
G1 X199.720 Y94.527 E0.06376
G1 X201.248 Y95.874 E0.06387
G1 X202.390 Y97.216 E0.05525
G1 X203.338 Y98.687 E0.05488
G1 X204.169 Y100.497 E0.06244
G1 X204.728 Y102.456 E0.06388
G1 X204.961 Y104.175 E0.05439
G1 X204.966 Y105.919 E0.05467
G1 X204.729 Y107.714 E0.05677
G1 X204.281 Y109.352 E0.05325
G1 X204.089 Y109.889 E0.01789
G1 X203.455 Y111.278 E0.04787
G1 X202.257 Y113.142 E0.06947
G1 X201.191 Y114.364 E0.05085
G1 X199.992 Y115.435 E0.05042
G1 X199.541 Y115.783 E0.01786
G1 X198.254 Y116.610 E0.04794
G1 X196.241 Y117.529 E0.06938
G1 X194.775 Y117.959 E0.04792
G1 X194.221 Y118.071 E0.01771
G1 X192.624 Y118.278 E0.05050
G1 X191.004 Y118.283 E0.05080
G1 X189.001 Y118.009 E0.06338
G1 X187.058 Y117.433 E0.06355
G1 X185.472 Y116.702 E0.05474
G1 X183.992 Y115.768 E0.05489
G1 X182.309 Y114.308 E0.06986
G1 X181.181 Y112.984 E0.05453
G1 X180.233 Y111.518 E0.05475
G1 X179.383 Y109.668 E0.06384
G1 X178.829 Y107.722 E0.06343
G1 X178.596 Y106.000 E0.05447
G1 X178.591 Y104.259 E0.05460
G1 X178.828 Y102.466 E0.05670
G1 X179.276 Y100.828 E0.05325
G1 X179.468 Y100.291 E0.01789
G1 X180.058 Y98.999 E0.04453
G1 X180.401 Y99.155 F10800.000
G1 F1200
G1 X180.439 Y99.071 E0.00291
G1 X181.593 Y97.275 E0.06692
G1 X182.625 Y96.090 E0.04928
G1 X183.811 Y95.031 E0.04985
G1 X184.227 Y94.710 E0.01648
G1 X185.495 Y93.895 E0.04726
G1 X187.434 Y93.009 E0.06682
G1 X188.946 Y92.570 E0.04939
G1 X190.514 Y92.321 E0.04977
G1 X191.042 Y92.275 E0.01664
G1 X192.593 Y92.279 E0.04864
G1 X194.405 Y92.525 E0.05733
G1 X196.110 Y93.005 E0.05554
G1 X197.839 Y93.774 E0.05930
G1 X199.505 Y94.837 E0.06198
G1 X200.970 Y96.129 E0.06125
G1 X202.080 Y97.431 E0.05365
G1 X203.014 Y98.880 E0.05407
G1 X203.810 Y100.615 E0.05984
G1 X204.356 Y102.521 E0.06215
G1 X204.585 Y104.214 E0.05357
G1 X204.589 Y105.907 E0.05310
G1 X204.357 Y107.652 E0.05518
G1 X203.920 Y109.246 E0.05183
G1 X203.743 Y109.740 E0.01647
G1 X203.118 Y111.110 E0.04719
G1 X201.964 Y112.905 E0.06692
G1 X200.931 Y114.091 E0.04930
G1 X199.746 Y115.150 E0.04984
G1 X199.330 Y115.471 E0.01646
G1 X198.062 Y116.285 E0.04726
G1 X196.122 Y117.171 E0.06685
G1 X194.676 Y117.595 E0.04724
G1 X194.166 Y117.698 E0.01632
G1 X192.588 Y117.902 E0.04991
G1 X191.016 Y117.905 E0.04927
G1 X189.067 Y117.637 E0.06170
G1 X187.203 Y117.085 E0.06094
G1 X185.641 Y116.365 E0.05393
G1 X184.205 Y115.457 E0.05327
G1 X182.587 Y114.052 E0.06719
G1 X181.477 Y112.749 E0.05369
G1 X180.557 Y111.325 E0.05316
G1 X179.741 Y109.550 E0.06123
G1 X179.201 Y107.658 E0.06171
G1 X178.971 Y105.962 E0.05365
G1 X178.968 Y104.271 E0.05303
G1 X179.200 Y102.529 E0.05511
G1 X179.637 Y100.935 E0.05183
G1 X179.815 Y100.440 E0.01647
G1 X180.376 Y99.210 E0.04240
G1 X180.719 Y99.366 F10800.000
G1 F1200
G1 X180.777 Y99.239 E0.00437
G1 X181.887 Y97.513 E0.06436
G1 X182.902 Y96.346 E0.04847
G1 X184.057 Y95.317 E0.04853
G1 X184.438 Y95.022 E0.01509
G1 X185.688 Y94.220 E0.04658
G1 X187.552 Y93.367 E0.06427
G1 X189.040 Y92.935 E0.04858
G1 X190.566 Y92.694 E0.04844
G1 X191.050 Y92.652 E0.01523
G1 X192.580 Y92.656 E0.04797
G1 X194.341 Y92.897 E0.05573
G1 X195.995 Y93.364 E0.05388
G1 X197.672 Y94.112 E0.05759
G1 X199.267 Y95.130 E0.05931
G1 X200.692 Y96.384 E0.05952
G1 X201.785 Y97.666 E0.05282
G1 X202.689 Y99.073 E0.05245
G1 X203.462 Y100.759 E0.05814
G1 X203.984 Y102.585 E0.05956
G1 X204.208 Y104.227 E0.05197
G1 X204.212 Y105.895 E0.05230
G1 X203.985 Y107.589 E0.05357
G1 X203.558 Y109.139 E0.05041
G1 X203.396 Y109.591 E0.01506
G1 X202.780 Y110.941 E0.04652
G1 X201.670 Y112.668 E0.06437
G1 X200.655 Y113.834 E0.04850
G1 X199.500 Y114.864 E0.04851
G1 X199.119 Y115.158 E0.01507
G1 X197.869 Y115.961 E0.04658
G1 X196.003 Y116.813 E0.06432
G1 X194.578 Y117.231 E0.04657
G1 X194.111 Y117.325 E0.01494
G1 X192.575 Y117.525 E0.04857
G1 X191.029 Y117.528 E0.04848
G1 X189.160 Y117.271 E0.05915
G1 X187.348 Y116.737 E0.05922
G1 X185.832 Y116.040 E0.05232
G1 X184.419 Y115.146 E0.05243
G1 X182.865 Y113.797 E0.06454
G1 X181.786 Y112.534 E0.05207
G1 X180.881 Y111.132 E0.05233
G1 X180.090 Y109.406 E0.05951
G1 X179.572 Y107.594 E0.05911
G1 X179.348 Y105.949 E0.05204
G1 X179.345 Y104.283 E0.05223
G1 X179.572 Y102.592 E0.05351
G1 X179.999 Y101.042 E0.05041
G1 X180.161 Y100.589 E0.01507
G1 X180.694 Y99.421 E0.04027
G1 X181.037 Y99.577 F10800.000
G1 F1200
G1 X181.114 Y99.408 E0.00583
G1 X182.180 Y97.750 E0.06182
G1 X183.162 Y96.620 E0.04692
G1 X184.303 Y95.602 E0.04794
G1 X184.649 Y95.335 E0.01370
G1 X185.880 Y94.544 E0.04590
G1 X187.671 Y93.726 E0.06173
G1 X189.111 Y93.306 E0.04703
G1 X190.619 Y93.067 E0.04786
G1 X191.057 Y93.029 E0.01381
G1 X192.566 Y93.033 E0.04730
G1 X194.276 Y93.269 E0.05413
G1 X195.878 Y93.723 E0.05222
G1 X197.505 Y94.451 E0.05588
G1 X199.051 Y95.440 E0.05755
G1 X200.414 Y96.639 E0.05692
G1 X201.475 Y97.880 E0.05120
G1 X202.365 Y99.266 E0.05163
G1 X203.103 Y100.877 E0.05556
G1 X203.613 Y102.650 E0.05784
G1 X203.833 Y104.265 E0.05114
G1 X203.835 Y105.883 E0.05070
G1 X203.613 Y107.525 E0.05197
G1 X203.197 Y109.031 E0.04899
G1 X203.050 Y109.442 E0.01367
G1 X202.443 Y110.772 E0.04585
G1 X201.377 Y112.430 E0.06182
G1 X200.378 Y113.578 E0.04769
G1 X199.254 Y114.578 E0.04718
G1 X198.909 Y114.845 E0.01369
G1 X197.677 Y115.636 E0.04590
G1 X195.884 Y116.455 E0.06178
G1 X194.480 Y116.866 E0.04589
G1 X194.056 Y116.952 E0.01358
G1 X192.562 Y117.148 E0.04723
G1 X191.041 Y117.151 E0.04768
G1 X189.226 Y116.900 E0.05747
G1 X187.494 Y116.388 E0.05663
G1 X186.001 Y115.702 E0.05150
G1 X184.633 Y114.835 E0.05080
G1 X183.142 Y113.541 E0.06189
G1 X182.081 Y112.299 E0.05123
G1 X181.205 Y110.939 E0.05072
G1 X180.448 Y109.289 E0.05692
G1 X179.944 Y107.529 E0.05739
G1 X179.724 Y105.911 E0.05121
G1 X179.722 Y104.296 E0.05064
G1 X179.944 Y102.655 E0.05191
G1 X180.360 Y101.149 E0.04899
G1 X180.507 Y100.739 E0.01367
G1 X181.012 Y99.632 E0.03814
G1 X181.452 Y99.577 F10800.000
G1 F1200
G1 X182.474 Y97.987 E0.05928
G1 X183.438 Y96.876 E0.04611
G1 X184.549 Y95.888 E0.04660
G1 X184.859 Y95.648 E0.01232
G1 X186.073 Y94.869 E0.04521
G1 X187.790 Y94.084 E0.05919
G1 X189.205 Y93.671 E0.04622
G1 X190.671 Y93.441 E0.04653
G1 X191.065 Y93.406 E0.01241
G1 X192.552 Y93.410 E0.04662
G1 X194.211 Y93.640 E0.05252
G1 X195.762 Y94.082 E0.05055
G1 X197.338 Y94.789 E0.05417
G1 X198.813 Y95.733 E0.05491
G1 X200.137 Y96.894 E0.05521
G1 X201.164 Y98.095 E0.04956
G1 X202.040 Y99.458 E0.05080
G1 X202.754 Y101.020 E0.05386
G1 X203.241 Y102.714 E0.05526
G1 X203.456 Y104.279 E0.04952
G1 X203.458 Y105.870 E0.04989
G1 X203.242 Y107.462 E0.05036
G1 X202.835 Y108.924 E0.04758
G1 X202.703 Y109.292 E0.01228
G1 X202.105 Y110.603 E0.04517
G1 X201.083 Y112.193 E0.05927
G1 X200.119 Y113.304 E0.04612
G1 X199.008 Y114.292 E0.04660
G1 X198.698 Y114.532 E0.01231
G1 X197.484 Y115.312 E0.04522
G1 X195.765 Y116.097 E0.05925
G1 X194.382 Y116.502 E0.04521
G1 X194.000 Y116.579 E0.01221
G1 X192.525 Y116.773 E0.04665
G1 X191.054 Y116.774 E0.04612
G1 X189.319 Y116.534 E0.05493
G1 X187.638 Y116.040 E0.05492
G1 X186.192 Y115.377 E0.04987
G1 X184.847 Y114.524 E0.04995
G1 X183.420 Y113.285 E0.05925
G1 X182.391 Y112.084 E0.04959
G1 X181.530 Y110.746 E0.04989
G1 X180.797 Y109.145 E0.05521
G1 X180.316 Y107.464 E0.05480
G1 X180.101 Y105.897 E0.04960
G1 X180.099 Y104.308 E0.04983
G1 X180.316 Y102.719 E0.05029
G1 X180.722 Y101.257 E0.04758
G1 X180.854 Y100.888 E0.01228
G1 X181.427 Y99.632 E0.04329
G1 X181.770 Y99.788 F10800.000
G1 F1200
G1 X182.767 Y98.224 E0.05818
G1 X183.715 Y97.133 E0.04530
G1 X184.794 Y96.175 E0.04526
G1 X185.070 Y95.961 E0.01094
G1 X186.265 Y95.193 E0.04453
G1 X187.908 Y94.442 E0.05665
G1 X189.298 Y94.036 E0.04540
G1 X190.723 Y93.814 E0.04520
G1 X191.073 Y93.783 E0.01102
G1 X192.538 Y93.787 E0.04594
G1 X194.146 Y94.012 E0.05090
G1 X195.645 Y94.441 E0.04889
G1 X197.171 Y95.127 E0.05246
G1 X198.576 Y96.026 E0.05229
G1 X199.859 Y97.150 E0.05351
G1 X200.854 Y98.310 E0.04792
G1 X201.716 Y99.651 E0.04997
G1 X202.396 Y101.138 E0.05129
G1 X202.869 Y102.780 E0.05356
G1 X203.079 Y104.292 E0.04788
G1 X203.081 Y105.858 E0.04908
G1 X202.870 Y107.397 E0.04873
G1 X202.474 Y108.816 E0.04617
G1 X202.357 Y109.143 E0.01090
G1 X201.768 Y110.434 E0.04449
G1 X200.790 Y111.956 E0.05673
G1 X199.842 Y113.047 E0.04531
G1 X198.763 Y114.006 E0.04526
G1 X198.487 Y114.219 E0.01094
G1 X197.292 Y114.987 E0.04453
G1 X195.646 Y115.739 E0.05672
G1 X194.284 Y116.138 E0.04452
G1 X193.944 Y116.206 E0.01085
G1 X192.512 Y116.396 E0.04530
G1 X191.067 Y116.397 E0.04532
G1 X189.385 Y116.162 E0.05326
G1 X187.783 Y115.691 E0.05234
G1 X186.361 Y115.040 E0.04904
G1 X185.061 Y114.214 E0.04831
G1 X183.697 Y113.029 E0.05662
G1 X182.686 Y111.848 E0.04875
G1 X181.854 Y110.553 E0.04826
G1 X181.156 Y109.027 E0.05264
G1 X180.688 Y107.400 E0.05309
G1 X180.476 Y105.859 E0.04876
G1 X180.476 Y104.321 E0.04821
G1 X180.687 Y102.783 E0.04868
G1 X181.083 Y101.364 E0.04618
G1 X181.200 Y101.037 E0.01091
G1 X181.745 Y99.843 E0.04116
G1 X182.088 Y99.999 F10800.000
G1 F1200
G1 X182.127 Y99.915 E0.00291
G1 X183.061 Y98.460 E0.05420
G1 X183.975 Y97.407 E0.04372
G1 X185.040 Y96.461 E0.04468
G1 X185.281 Y96.273 E0.00957
G1 X186.458 Y95.518 E0.04384
G1 X188.027 Y94.800 E0.05412
G1 X189.369 Y94.407 E0.04382
G1 X190.775 Y94.188 E0.04463
G1 X191.081 Y94.160 E0.00962
G1 X192.524 Y94.164 E0.04525
G1 X194.080 Y94.383 E0.04927
G1 X195.527 Y94.799 E0.04723
G1 X197.003 Y95.465 E0.05076
G1 X198.338 Y96.319 E0.04969
G1 X199.582 Y97.406 E0.05181
G1 X200.544 Y98.525 E0.04626
G1 X201.392 Y99.843 E0.04913
G1 X202.038 Y101.257 E0.04873
G1 X202.498 Y102.845 E0.05186
G1 X202.702 Y104.306 E0.04624
G1 X202.704 Y105.845 E0.04825
G1 X202.498 Y107.333 E0.04710
G1 X202.112 Y108.708 E0.04477
G1 X202.010 Y108.994 E0.00954
G1 X201.431 Y110.266 E0.04381
G1 X200.496 Y111.720 E0.05420
G1 X199.582 Y112.774 E0.04373
G1 X198.517 Y113.720 E0.04468
G1 X198.276 Y113.907 E0.00957
G1 X197.099 Y114.663 E0.04384
G1 X195.527 Y115.381 E0.05419
G1 X194.186 Y115.774 E0.04384
G1 X193.889 Y115.833 E0.00949
G1 X192.475 Y116.020 E0.04472
G1 X191.080 Y116.020 E0.04374
G1 X189.477 Y115.797 E0.05074
G1 X187.927 Y115.343 E0.05064
G1 X186.552 Y114.714 E0.04740
G1 X185.275 Y113.903 E0.04746
G1 X183.974 Y112.773 E0.05401
G1 X182.997 Y111.633 E0.04709
G1 X182.178 Y110.361 E0.04743
G1 X181.514 Y108.909 E0.05007
G1 X181.059 Y107.334 E0.05138
G1 X180.853 Y105.846 E0.04711
G1 X180.853 Y104.334 E0.04739
G1 X181.059 Y102.848 E0.04706
G1 X181.445 Y101.473 E0.04478
G1 X181.547 Y101.186 E0.00954
G1 X182.063 Y100.054 E0.03902
G1 X182.406 Y100.210 F10800.000
G1 F1200
G1 X182.464 Y100.083 E0.00437
G1 X183.355 Y98.697 E0.05167
G1 X184.251 Y97.663 E0.04290
G1 X185.286 Y96.747 E0.04333
G1 X185.492 Y96.586 E0.00821
G1 X186.650 Y95.842 E0.04315
G1 X188.146 Y95.158 E0.05158
G1 X189.463 Y94.772 E0.04300
G1 X190.827 Y94.561 E0.04329
G1 X191.089 Y94.537 E0.00824
G1 X192.510 Y94.541 E0.04455
G1 X194.014 Y94.755 E0.04762
G1 X195.410 Y95.158 E0.04556
G1 X196.835 Y95.803 E0.04906
G1 X198.101 Y96.612 E0.04711
G1 X199.306 Y97.663 E0.05011
G1 X200.234 Y98.740 E0.04460
G1 X201.067 Y100.036 E0.04829
G1 X201.679 Y101.375 E0.04618
G1 X202.126 Y102.912 E0.05017
G1 X202.325 Y104.320 E0.04458
G1 X202.327 Y105.832 E0.04742
G1 X202.126 Y107.268 E0.04545
G1 X201.751 Y108.599 E0.04338
G1 X201.664 Y108.845 E0.00818
G1 X201.093 Y110.097 E0.04313
G1 X200.202 Y111.483 E0.05167
G1 X199.306 Y112.517 E0.04292
G1 X198.271 Y113.433 E0.04333
G1 X198.065 Y113.594 E0.00821
